X: 6
T: Frenchie's Reel
P: Piffero primo a0560
O: unk
%R: reel
F: http://ancients.sudburymuster.org/mus/ssp/pdf/blackwaterF.pdf
Z: 2019 John Chambers <jc:trillian.mit.edu>
M: 2/4
L: 1/16
K: D
%%staffsep 40
z2 |:\
FAde f2ff | FAde f2ff | e2ef gfed | cdef g2gg |\
FAde f2ff |
FAde f2ff | e2ef gece | dcde dBAG ::\
FFdF FeFF | fFFe- eFd2 | GGdG GeGG |
dGGe- eGd2 |\
AAeA AfAA | gAAf- fAe2 | d2de dcde |1 dedB A2G2 :|2 dBAF D2 |]

% %sep 1 1 200
% %center - - - - - - - - - -
% Whatever we want at the bottom of each set belongs here.
